X:1
T:Sensommarvals av hultkvist
R:vals
C:(Östergötland)
Z:Trans. by Bill Boyd
M:3/4
L:1/8
Q:1/4=155
K:D
P:A
|: "D"a(bag)fe|d2 AF D2|(DF)(Ad)c=c|"G"B2 GE B,2\
| ("A"A,C)(EA)ce|(gf)(ed)cB|(Ac)(ec)ac\
|1 "D"d2 AF D2 :|2 "D"[D6d6]|
P:B
|: ("D"DF)(AF)dF |(DF)(AF)dF|"G"G2 BAGA|.B.A.G.F.E.D\
| ("A"A,C)(EA)ce|(gf)(ed)cB|(Ac)(ec)ac\
|1 "D"d2 AF D2 :|2 "D"[D6d6]||

